X:390
T:B390-  Remember Ye Whigs
Q:1/4=120
L:1/4
M:3/4
K:Am
A|cde|c3/2B/ (A/B/)|B3/2A/^G|A2:|e|\
c3/2B/A|e2a|a3/2b/^g|a2g|\
f3/2e/f|e3/2f/ (g/e/)|d2c|c2c|\
e3/2d/c|g2G|B3/2A/G|d2d|\
f3/2e/d|a2A/B/|c3/2B/A|e2A|\
eeA|^G2A|eeG|^F3/2 (B/ c/d/)|\
d3/2d/e|E2^F|^GAB|GF/E/e|\
d3/2c/B|cc(d/B/)|B3/2A/^G|A2||e|\
a3/2a/g|^f2g|ee^f|^dBg|\
g2^f|^f3/2g/e|e2^d|e2B|\
^GAB|E2B|eBe|(^cA)E|\
AEA|^FDA|dAd|(BG)d|\
g2f|f2e|e3/2d/^c|de/d/ c/B/|\
cd/c/ B/A/|f/e/ d/c/ B/A/|^G3|ABc|\
^cde|f^fg|^gae|fg/f/ e/d/|\
ef/e/ d/c/|d/B/ c/d/ e/A/|^GEc|(c3/2d/)B|\
(B3/2c/)A|A2^G|A2|]
